!! 00000] TT[00
!! NN
!!!OTL: Mama niang hao hutu
!!!ARE: Asia, China,ÿHebei, Xinglong, Nordwesten)
!! Ethnic Group: Han
!! IV, 45
!!!SCT: C0373
!!!YEM: Copyright 1995, estate of Helmut Schaffrath.
**kern
*ICvox
*Ivox
*M2/4
*k[b-]
*F:
{16dd
16ff
16dd
16cc
8.a
16cc
=1
16dd
16ff
16dd
16cc
4a}
=2
{8a
8ff
8dd
8cc
=3
16a
8f
16g
4a}
=4
{16a
16g
16a
16cc
16dd
16ff
16dd
16cc
=5
8a
16cc
16a
16g
16a
8f}
=6
{16f
16g
16a
16cc
16g
16a
8e
=7
8.d
16c
4d}
=8
{16.f
32g
16f
16g
8a
8a
=9
8f
8a
16g
16a
8e
=10
8.d
16c
4d}
==
!!!AGN: Xiaodiao, Shidiao, Yinniusi diao. Geming lishi minge
!! sehr verbreitet im Norden und Nordosten. Text und Mel. = original.
!!    +++schon einmal vorhanden? +++
!!!ONB: ESAC (Essen Associative Code) Database: CHINA
!!!AMT: simple duple
!!!AIN: vox
!!!EED: Helmut Schaffrath
!!!EEV: 1.0
*-
